X: 14609
T: Gan Ainm
R: polka
M: 2/4
K: Amajor
|:F/|E>A Ac|BA FA|E>A Ac|BA Fe|
f/g/a/f/ e/f/e/c/|B/c/B/A/ F/G/A/F/|E/4F/4E/A BA/B/|1 cA A3/2:|2 cA A||
|:f/f/|ec Af|ec A/A/f|ec Ac/e/|fa a>e|
f/g/a/f/ e/f/e/c/|B/c/B/A/ F/G/A/F/|EA BA/B/|1 cA A:|2 cA A3/2||

